!!!!SEGMENT: pl-sa--l-1636--015_anonim--keyboard-piece.krn
!!!cenid: 17xx:722
!!!COM: Anonim
!!!COM-rismid: pe30004985
!!!CDT:
!!!CNT:
!!!OTL: Keyboard piece
!!!PDT:
!!!AGN: Secular
!!!SMS-siglum: PL-SA
!!!SMS-shelfmark: L 1636
!!!SMS-shelfwork: 015 W
!!!SMS-variant:
!!!SMS-altvar:
!!!NIFC-rismid: 1001076399
!!!URL-scan: http://repozytorium.nifc.pl/skany/pl-sa-nut--l1636
!!!ONB-nifc: 4v-5r, skan 0008, s. 4-6
**kern	**kern
*part2	*part1
*staff2	*staff1
*group1	*group1
*clefC3	*clefC1
*k[]	*k[]
*M2/2	*M2/2
*met(c|)	*met(c|)
=1	=1
*2\right	*2\right
!	!LO:TX:a:t=P:problem:16\right:global
2r	16a\LL
.	16b\
.	16a\
.	16g\JJ
!	!LO:TX:a:t=P:problem:8\right:global
.	8a\L
.	8e\J
!LO:TX:a:t=P:problem:16\right:global	!
16d\LL	2f/
16e\	.
16d\	.
16c#X\JJ	.
!LO:TX:t=P:problem:mixed beam	!
8d\L	.
8A/J	.
=2	=2
*^	*
!	!LO:TX:a:t=P:problem:4\right:global	!
4d/	4B\	16g\LL
.	.	16a\
.	.	16g\
.	.	16f\JJ
*v	*v	*
8c#X\L	8e/L
8d\J	8f/J
*clefF4	*
*	*^
16A\LL	2e/	2c#X\
16B\	.	.
16A\	.	.
16G\JJ	.	.
8A\L	.	.
8E\J	.	.
*	*v	*v
=3	=3
*^	*
!LO:TX:t=f	!	!
!LO:TX:t=P:problem: dolny głos: było d, skreślono, wpisano f i dopisano obok literę f	!	!
4A/	4F\	16d/LL
.	.	16e/
.	.	16d/
.	.	16c#X/JJ
*v	*v	*
4F#X\	8d/L
.	8A/J
*	*^
16G\LL	4.d/	2B\
16A\	.	.
16G\	.	.
16F#X\JJ	.	.
8G\L	.	.
8E\J	8e/	.
!!LO:PB:g=original
=4	=4	=4
!	!	!LO:TX:a:t=P:problem:4\right:global
16A\LL	4e/	4c#X\
16B\	.	.
16A\	.	.
16G\JJ	.	.
8A\L	4f/	4d\
8F\J	.	.
16G\LL	2e/	4d\
16E\	.	.
16F\	.	.
16G\JJ	.	.
16A\LL	.	4c#X\
16G\	.	.
16F\	.	.
16E\JJ	.	.
*	*v	*v
=5	=5
*^	*
!!linebreak:original
2A/	4D\	16d/LL
.	.	16e/
.	.	16f/
.	.	16g/JJ
.	4C#X\	16a\LL
.	.	16g\
.	.	16f\
.	.	16e\JJ
*	*	*^
2A/yy	16D\LL	4f/	4d\
.	16E\	.	.
.	16F\	.	.
.	16G\JJ	.	.
.	16A\LL	4a/	4e\
.	16B\	.	.
.	16c#X\	.	.
.	16A\JJ	.	.
*v	*v	*	*
*	*v	*v
=6	=6
16d\LL	16f/LL
16c#X\	16e/
16d\	16f/
16B\JJ	16d/JJ
16e\LL	16g/LL
16d\	16f/
16c#X\	16e/
16B\JJ	16d/JJ
*^	*
8c#X/	2A\	8e/L
4d/	.	8f/J
.	.	4e/
8c#X/	.	.
!!LO:LB:g=original
=7	=7	=7
8F/	8D\L	16dd\LL
.	.	16ee\
4.F/yy	8E\	16dd\
.	.	16cc#X\JJ
.	8F\	8dd\L
.	8F#X\J	8a\J
2B/	4G\	16dd\LL
.	.	16b\
.	.	16cc#X\
.	.	16dd\JJ
.	4G#X\	8.ee\L
.	.	16dd\Jk
*v	*v	*
=8	=8
*	*^
!!linebreak:original
8A\L	4ee/	4cc#X\
16G\L	.	.
16A\JJ	.	.
8F\L	4ff/	4dd\
16E\L	.	.
16D\JJ	.	.
8G\L	2ee/	4dd\
16F\L	.	.
16G\JJ	.	.
!LO:TX:t=P:problem:mixed beam	!	!
8A\L	.	4cc#X\
8AA/J	.	.
=9	=9	=9
16D/LL	2.ff/	2dd\
16E/	.	.
16D/	.	.
16C#X/JJ	.	.
8D/L	.	.
8AA/J	.	.
4BB-X/	.	16ff\LL
.	.	16ee\
.	.	16ff\
.	.	16dd\JJ
4GG/	4ryy	16gg\LL
.	.	16ff\
.	.	16ee\
.	.	16dd\JJ
=10	=10	=10
16G\LL	2dd/	4dd\
16E\	.	.
16F\	.	.
16G\JJ	.	.
!LO:TX:t=P:problem:mixed beam	!LO:TX:t=P:problem: a skreślone, poprawione na cis	!
16A\LL	.	8cc#X\L
16G\	.	.
16A\	.	8g\J
16AA/JJ	.	.
2DD/ 2AA 2D	2a/ 2dd	2f#X\
*	*v	*v
=:|!	=:|!
*-	*-
!!!system-decoration: [(g1)]
!!!ENC:Anna Matuszewska
!!!END:2020-12-07
!!!ENC: Mateusz Solarz
!!!END: 2020-06-15
